X:1
T:James Gibb editions
T:When day's shadows lengthen - Barnby
%%score [ ( 1 2 ) ( 3 4 ) ]
L:1/8
Q:1/4=80
M:4/4
K:Eb
V:1 treble nm="Midi_74"
V:2 treble 
V:3 bass nm="Midi_74"
V:4 bass 
V:1
"^65. 65. 65""^Frederick George Lee\n(1832-1902)""^When day's shadows lengthen""^Joseph Barnby\n(1838-96)" E2 E2 F2 G2 | %1
 A4 G4 || B2 AG F2 A2 | G8 || G2 G2 =A2 B2 | c4 B4 ||[M:4/4] d2 cB =A2 c2 | B8 || G2 A2 B2 e2 | %9
"^1" _d4 c4 || B2 AG F2 G2 | E8- || A4 G4 |] %13
V:2
 E2 E2 E2 E2 | (E2 F2) B,4 || E2 E2 E2 !courtesy!=D2 | E8 || E2 G2 G2 G2 | (G2 ^F2) G4 || %6
w: When day's sha- dows|leng\- * then,|Je- sus, be Thou|near;|Par- don, com- fort,|streng\- * then,|
[M:4/4] G2 G2 F2 E2 | D8 || E2 D2 E2 G2 | (F2 E2) (E2 F2) || G2 E2 E2 D2 | E8 || E4 E4 |] %13
w: Chase a- way our|fear;|Love and hope be|dee\- * pen'd, *|Faith more strong and|dear.|A- men.|
V:3
 G,2 G,2 A,2 B,2 | (C2 D2) E4 || _D2 CB, A,2 F,2 | G,8 || B,2 B,2 E2 D2 | C2 B,=A, (B,2 D2) || %6
[M:4/4]"^2. When the night grows darkest, \nAnd the stars are pale, \nWhen the foe assembles \nIn death's misty vale, \nBe Thou sword and buckler, \nBe Thou shield and mail. \n\n3. Come, Thou Food of angels. \nSource of every grace, \nIn Thy Father’s mansions \nGive us soon a place, \nThat unveiled in splendour, \nWe may see Thy face. \n\n4. By the Jordan's ripple \nPassing through the shade, \nLet us hear that promise \nOnce forever made;\nIt is I, thy Jesus, \nBe not thou afraid.\n" F2 ED C2 =A,2 | %7
 B,8 || B,2 A,2 G,2 B,2 | %9
 (A,2 B,2)"^5. Then be near us, Jesus, \nEnemies shall flee; \nHidden God and Saviour, \nThou our Comfort be, \nFood and Priest and Victim, \nLet us feed on Thee. \n\n6. So shall no fears chill us \nthat unknown shore, \nFor in death He conquered \nAnd can die no more. \nHis hand guards and guides us \nTo the City's door. \n\n7. Blessed warfare over, \nEndless Rest alone. \nTears no more, nor sorrow,\nNeither sigh, nor moan, \nBut a song of triumph \nRound about the Throne." (C2 E2) || %10
 E2 CB, A,2 A,2 | G,8 || C4 B,4 |] %13
V:4
 E,2 E,2 E,2 E,2 | E,4 E,4 || A,,2 A,,2 B,,2 B,,2 | E,8 || E,2 D,2 C,2 B,,2 | (=A,,2 D,2) G,4 || %6
[M:4/4] C,2 C,2 F,2 F,2 | B,,8 || E,2 F,2 G,2 E,2 | (F,2 G,2) (A,2- =A,2) || B,2 B,,2 B,,2 B,,2 | %11
 E,8 || A,,4 E,4 |] %13

